build/category/BankOutline.svg

<svg xmlns="http://www.w3.org/2000/svg" fill="none" viewBox="0 0 24 24" focusable="false"><path d="M0 0H24V24H0z"/><path fill="#74767B" fill-rule="evenodd" d="M11.2662 3.23119C11.708 2.9502 12.2723 2.94994 12.7143 3.23051L19.4311 7.49431C20.5721 8.21856 20.059 9.98406 18.7076 9.98406L5.28797 9.98406C3.93724 9.98406 3.42371 8.21996 4.56339 7.49499L11.2662 3.23119ZM12.0176 4.32805C12.0013 4.31766 11.9803 4.31767 11.964 4.32808L5.26113 8.59187C5.24766 8.60044 5.24251 8.60663 5.24117 8.60833C5.23969 8.61022 5.23848 8.61317 5.23848 8.61317C5.23702 8.61746 5.23475 8.63011 5.23996 8.64803C5.24518 8.66596 5.25389 8.6754 5.25743 8.67824C5.25743 8.67824 5.26003 8.68008 5.26229 8.68088C5.26434 8.6816 5.27201 8.68406 5.28797 8.68406L18.7076 8.68406C18.7236 8.68406 18.7313 8.6816 18.7333 8.68088L18.7355 8.68L18.7382 8.67824C18.7417 8.67541 18.7504 8.66596 18.7556 8.64801C18.7609 8.63006 18.7586 8.61741 18.7571 8.61313L18.756 8.6106L18.7544 8.6083C18.7531 8.6066 18.7479 8.60041 18.7344 8.59184L12.0176 4.32805ZM8.28267 11.9225C8.28267 11.5635 7.99165 11.2725 7.63267 11.2725C7.27368 11.2725 6.98267 11.5635 6.98267 11.9225L6.98267 16.805C6.98267 17.164 7.27368 17.455 7.63267 17.455C7.99165 17.455 8.28267 17.164 8.28267 16.805L8.28267 11.9225ZM11.9999 11.2725C12.3589 11.2725 12.6499 11.5635 12.6499 11.9225L12.6499 16.805C12.6499 17.164 12.3589 17.455 11.9999 17.455C11.6409 17.455 11.3499 17.164 11.3499 16.805L11.3499 11.9225C11.3499 11.5635 11.6409 11.2725 11.9999 11.2725ZM17.0172 11.9225C17.0172 11.5635 16.7262 11.2725 16.3672 11.2725C16.0082 11.2725 15.7172 11.5635 15.7172 11.9225L15.7172 16.805C15.7172 17.164 16.0082 17.455 16.3672 17.455C16.7262 17.455 17.0172 17.164 17.0172 16.805L17.0172 11.9225ZM4.63682 18.7501C4.27783 18.7501 3.98682 19.0411 3.98682 19.4001C3.98682 19.7591 4.27783 20.0501 4.63682 20.0501L19.363 20.0501C19.722 20.0501 20.013 19.7591 20.013 19.4001C20.013 19.0411 19.722 18.7501 19.363 18.7501L4.63682 18.7501Z"/></svg>

<svg xmlns="http://www.w3.org/2000/svg" fill="none" viewBox="0 0 24 24" focusable="false"><path fill="#74767B" fill-rule="evenodd" d="M12.71 3.23c-.44-.29-1.01-.28-1.45 0l-6.7 4.26c-1.14.72-.63 2.49.72 2.49H18.7c1.35 0 1.87-1.77.73-2.49zm-.75 1.09c.02-.01.04-.01.05 0l6.72 4.27c.01.01.02.01.02.01v.01s.01.02 0 .03c0 .02-.01.03-.02.03v.01H5.26l-.01-.01s-.01-.01-.02-.03v-.03l.01-.01.02-.01zm-3.68 7.6c0-.36-.29-.65-.65-.65s-.65.29-.65.65v4.88c0 .36.29.65.65.65s.65-.29.65-.65zm3.72-.65c.35 0 .64.29.64.65v4.88c0 .36-.29.65-.64.65-.36 0-.65-.29-.65-.65v-4.88c0-.36.29-.65.65-.65m5.01.65c0-.36-.29-.65-.65-.65s-.65.29-.65.65v4.88c0 .36.29.65.65.65s.65-.29.65-.65zM4.63 18.75c-.36 0-.65.29-.65.65 0 .35.29.65.65.65h14.73c.36 0 .65-.3.65-.65 0-.36-.29-.65-.65-.65z"/></svg>
